assets/images/afrikons/flower.svg

<svg viewBox="0 0 50 50" xmlns="http://www.w3.org/2000/svg"><path d="m49.8 24.52a17.8 17.8 0 0 0 -11.18-5.16 17.86 17.86 0 0 0 4.26-11.57.67.67 0 0 0 -.67-.67 17.86 17.86 0 0 0 -11.57 4.26 18 18 0 0 0 -5.16-11.19.7.7 0 0 0 -.95 0 17.81 17.81 0 0 0 -5.17 11.19 17.83 17.83 0 0 0 -11.56-4.26.67.67 0 0 0 -.67.67 17.86 17.86 0 0 0 4.26 11.57 17.79 17.79 0 0 0 -11.19 5.17.65.65 0 0 0 0 .94 17.82 17.82 0 0 0 11.18 5.17 17.88 17.88 0 0 0 -4.25 11.56.67.67 0 0 0 .67.67 17.83 17.83 0 0 0 11.56-4.26 17.79 17.79 0 0 0 5.17 11.19.66.66 0 0 0 .47.2.7.7 0 0 0 .49-.2 17.93 17.93 0 0 0 5.16-11.19 17.86 17.86 0 0 0 11.57 4.26.67.67 0 0 0 .67-.67 17.83 17.83 0 0 0 -4.26-11.56 17.82 17.82 0 0 0 11.17-5.17.66.66 0 0 0 0-.95z" fill="#0a0a0a"/></svg>

<svg xmlns="http://www.w3.org/2000/svg" viewBox="0 0 50 50"><defs><style>.cls-1{fill:#0a0a0a;}</style></defs><title>flower</title><g id="Layer_2" data-name="Layer 2"><g id="Layer_1-2" data-name="Layer 1"><path class="cls-1" d="M49.8,24.52a17.8,17.8,0,0,0-11.18-5.16A17.86,17.86,0,0,0,42.88,7.79a.67.67,0,0,0-.67-.67,17.86,17.86,0,0,0-11.57,4.26A18,18,0,0,0,25.48.19a.7.7,0,0,0-.95,0,17.81,17.81,0,0,0-5.17,11.19A17.83,17.83,0,0,0,7.8,7.12a.67.67,0,0,0-.67.67,17.86,17.86,0,0,0,4.26,11.57A17.79,17.79,0,0,0,.2,24.53a.65.65,0,0,0,0,.94,17.82,17.82,0,0,0,11.18,5.17A17.88,17.88,0,0,0,7.13,42.2a.67.67,0,0,0,.67.67,17.83,17.83,0,0,0,11.56-4.26A17.79,17.79,0,0,0,24.53,49.8.66.66,0,0,0,25,50a.7.7,0,0,0,.49-.2,17.93,17.93,0,0,0,5.16-11.19,17.86,17.86,0,0,0,11.57,4.26.67.67,0,0,0,.67-.67,17.83,17.83,0,0,0-4.26-11.56A17.82,17.82,0,0,0,49.8,25.47.66.66,0,0,0,49.8,24.52Z"/></g></g></svg>
